X:1
T:The Bible Stands
T:Haldor Lillenas, 1917
T:The Bible Stands
T:Public Domain
T:Public Domain
C:Haldor Lillenas, 1917
Z:Public Domain
%%score ( 1 2 ) 3
L:1/8
M:4/4
K:Ab
V:1 treble 
V:2 treble 
V:3 bass 
V:1
 [CE]2 | [CA]2 [DA]2 [CA]2 [DG][EA] | [DB]2 [DF]2 [DB][FA][EG][DF] | [CE]2 [CA]2 [Ec]2 [EA]2 | %4
w: 1.~The|Bi- ble stands like a|rock un- daunt- ed ’Mid the|rag- ing storms of|
w: 2.~The|Bi- ble stands like a|mount- ain tow- ering Far a-|bove the works of|
w: 3.~The|B- ible stands and it|will for- ev- er, When the|world has passed a-|
w: 4.~The|Bi- ble stands eve- ry|test we give it, For its|Au- thor is di-|
 [EB]6 [DE]2 | [CA]2 [DA]2 [CA]2 [DG][EA] | [DB]2 [DF]2 [DB][FA][EG][DF] | %7
w: time; Its|pag- es burn with the|truth e- ter- nal, And they|
w: men; Its|truth by none ev- er|was re- fut- ed, And de-|
w: way; By|in- spir- a- tion it|has been giv- en, All its|
w: vine; By|grace a- lone I ex-|pect to live it, And to|
 [CE]2 [Ec][Fd] [Ec]2 [DB]2 | [CA]6 ||"^Refrain" [CE]2 | (EA)(GF) [Ec]2 [EB][EA] | %11
w: glow with a light sub-|lime.|||
w: stroy it they ne- ver|can.|The|Bi- * ble * stands though the|
w: pre- cepts I will o-|bey.|||
w: prove and to make it|mine.|||
 [EG]2 [Ed]2 [Ed][EB][EG]F | (EF)(GA) [Bd]2 [Ac][GB] | [EA]2 [Ae]2 [Ae][Ec][DB][CA] | %14
w: |||
w: tum- ble, It will firm- ly|when * the * earth shall crum-|I will plant my feet on|
w: |||
w: |||
 [CE]2 [Ec]2 [Ec]2 [DB][Ec] | [Fd]2 [DF]2 [DB][FA][EG][DF] | [CE]4 [DB]4 | [CA]6 |] %18
w: ||||
w: its firm found- a- tion,|For the Bi- ble stands. *|||
w: ||||
w: ||||
V:2
 x2 | x8 | x8 | x8 | x8 | x8 | x8 | x8 | x6 || x2 | c2 c2 x4 | x7 E | x2 d2 x4 | x8 | x8 | x8 | %16
w: ||||||||||||||||
w: ||||||||||hills may|stand|ble;||||
 x8 | x6 |] %18
w: ||
w: ||
V:3
 [A,,A,]2 | [A,,E,]2 [A,,F,]2 [A,,E,]2 [B,,E,][C,A,] | [D,A,]2 [D,A,]2 [D,A,][D,A,][D,A,][D,A,] | %3
 [A,,A,]2 [A,,A,]2 [A,,A,]2 [C,A,]2 | [E,G,]6 [E,G,]2 | [A,,A,]2 [A,,F,]2 [A,,E,]2 [B,,E,][C,A,] | %6
 [D,A,]2 [D,A,]2 [D,A,][D,A,][D,A,][D,A,] | [E,A,]2 [E,A,][E,A,] [E,A,]2 [E,G,]2 | [A,,A,]6 || %9
 [A,,A,]2 | [A,,A,]2 [A,,E,]2 [A,,A,]2 [B,,G,][C,A,] | [E,B,]2 [E,G,]2 [E,G,][E,G,][E,B,][E,A,] | %12
 [E,G,]2 [E,B,]2 [E,E]2 [E,E][E,D] | [A,C]2 [A,C]2 [A,C]A,[E,G,][E,A,] | %14
 [A,,A,]2 [A,,A,]2 [A,,A,]2 [A,,A,][A,,A,] | [D,A,]2 [D,A,]2 [D,A,][D,A,][D,A,][D,A,] | %16
 [E,A,]4 [E,G,]4 | [A,,E,A,]6 |] %18

